X:144
T:Gander in the Pratie Hole, The
R:jig
D:Planxty
Z:id:hn-jig-144
M:6/8
K:Dmix
FAD FAD|~G3 EFG|FAD FAD|GED D2E|FAD FAD|~G3 EFG|fed ecA|1 GEA D2E:|2 GEA D3||
|:Ad^c ded|cAB cAG|Ad^c ded|cAB c2A|Ad^c ded|cAB cde|fed ecA|1 GEA D3:|2 GEA D2E||
P:Variations:
|:F/G/AD F/G/AD|GBG EFG|FAD FAD|GEA ~D3|FAD FAD|G/A/BG EFG|fed cAA|GEA ~D3:|
|:Add ded|cAB cAG|Add ded|cAB c2A|Add ded|cAB cde|fed cAA|GEA ~D3:|

